assets/icons/24px/stroke/lights-off-24px.svg

<svg width="24" height="24" viewBox="0 0 24 24" fill="none" xmlns="http://www.w3.org/2000/svg">
<path fill-rule="evenodd" clip-rule="evenodd" d="M12 2C12.5523 2 13 2.44772 13 3V5.05359C15.2973 5.3021 17.3329 6.40521 18.6167 8.16101C18.6351 8.18622 18.6538 8.21164 18.6725 8.23726C19.0035 8.68883 19.3807 9.2035 19.5519 9.76683C19.7677 10.477 19.6445 11.151 19.2856 11.8579C19.0931 12.2372 18.8434 12.5656 18.5121 12.8252C18.1819 13.0841 17.8165 13.2385 17.4427 13.3328C16.8747 13.4761 16.1948 13.4968 15.4745 13.4996C15.4691 13.5706 15.4626 13.6415 15.4548 13.712C15.4082 14.1316 15.3074 14.6057 15.0616 15.0481C14.5071 16.0463 13.4541 16.5 12 16.5C10.5458 16.5 9.49284 16.0463 8.93832 15.0481C8.69252 14.6057 8.59178 14.1316 8.54516 13.712C8.53732 13.6415 8.53085 13.5706 8.5255 13.4996C7.80512 13.4968 7.12524 13.4761 6.55728 13.3328C6.18341 13.2385 5.81809 13.0841 5.48782 12.8252C5.1566 12.5656 4.90689 12.2372 4.71437 11.8579C4.35548 11.151 4.23225 10.477 4.44805 9.76683C4.61924 9.20351 4.99645 8.68883 5.32741 8.23726C5.34619 8.21164 5.36482 8.18622 5.38325 8.16101C6.66702 6.40521 8.70268 5.3021 11 5.05359V3C11 2.44772 11.4477 2 12 2ZM10.5339 13.5C10.5656 13.7784 10.6206 13.958 10.6866 14.0769C10.7571 14.2037 10.9541 14.5 12 14.5C13.0458 14.5 13.2428 14.2037 13.3133 14.0769C13.3793 13.958 13.4344 13.7784 13.466 13.5H10.5339ZM15 11.5C15.9979 11.5 16.5599 11.4928 16.9535 11.3935C17.1222 11.351 17.2158 11.3001 17.2783 11.2511C17.3399 11.2029 17.4169 11.1207 17.5022 10.9526C17.699 10.5649 17.6636 10.4317 17.6383 10.3483C17.5781 10.1502 17.419 9.91145 17.0022 9.34145C15.9549 7.90908 14.139 7 12 7C9.86093 7 8.04502 7.90908 6.99773 9.34145C6.58097 9.91145 6.42187 10.1502 6.36165 10.3483C6.33633 10.4317 6.30093 10.5649 6.49775 10.9526C6.58308 11.1207 6.66002 11.2029 6.7216 11.2511C6.78414 11.3001 6.87779 11.351 7.04643 11.3935C7.44008 11.4928 8.00201 11.5 8.99998 11.5H15Z" fill="white"/>
</svg>

<svg width="24" height="24" fill="none" xmlns="http://www.w3.org/2000/svg"><path fill-rule="evenodd" clip-rule="evenodd" d="M12 2a1 1 0 0 1 1 1v2.054c2.297.248 4.333 1.351 5.617 3.107l.055.076c.331.452.709.966.88 1.53.216.71.093 1.384-.266 2.09-.193.38-.443.709-.774.968a2.82 2.82 0 0 1-1.07.508c-.567.143-1.247.164-1.967.167a6.227 6.227 0 0 1-.02.212c-.047.42-.148.894-.393 1.336-.555.998-1.608 1.452-3.062 1.452-1.454 0-2.507-.454-3.062-1.452-.245-.442-.346-.916-.393-1.336a6.006 6.006 0 0 1-.02-.212c-.72-.003-1.4-.024-1.968-.167a2.82 2.82 0 0 1-1.07-.508 2.827 2.827 0 0 1-.773-.967c-.359-.707-.482-1.381-.266-2.091.171-.563.548-1.078.88-1.53l.055-.076C6.667 6.405 8.703 5.302 11 5.054V3a1 1 0 0 1 1-1zm-1.466 11.5c.032.278.087.458.153.577.07.127.267.423 1.313.423 1.046 0 1.243-.296 1.313-.423.066-.119.121-.299.153-.577h-2.932zm4.466-2c.998 0 1.56-.007 1.953-.107a.838.838 0 0 0 .325-.142.844.844 0 0 0 .224-.298c.197-.388.162-.521.136-.605-.06-.198-.219-.437-.636-1.007C15.955 7.91 14.14 7 12 7c-2.14 0-3.955.91-5.002 2.341-.417.57-.576.81-.636 1.007-.026.084-.061.217.136.605.085.168.162.25.224.298.062.05.156.1.324.143.394.099.956.106 1.954.106h6z" fill="#fff"/></svg>
